;FLAVOR:Marlin
;TIME:3160
;Filament used: 3.48369m
;Layer height: 0.2
;MINX:62.2
;MINY:77.2
;MINZ:0.3
;MAXX:157.8
;MAXY:142.8
;MAXZ:2.9
;Generated with Cura_SteamEngine 4.1.0
M140 S60
M105
M190 S60
M104 S200
M105
M109 S200
M82 ;absolute extrusion mode
G21 ;metric values
G90 ;absolute positioning
M82 ;set extruder to absolute mode
M107 ;start with the fan off
G28 X0 Y0 ;move X/Y to min endstops
G28 Z0 ;move Z to min endstops
G1 Z15.0 F9000 ;move the platform down 15mm
G92 E0 ;zero the extruded length
G1 F200 E3 ;extrude 3mm of feed stock
G92 E0 ;zero the extruded length again
G1 F9000;Put printing message on LCD screen
M117 Printing..0
G92 E0
G92 E0
G1 F1500 E-6.5
;LAYER_COUNT:14
;LAYER:0
M107
G0 F3600 X65.222 Y78.834 Z0.3
;TYPE:SKIRT
G1 F1500 E0
G1 F1800 X65.87 Y78.383 E0.03939
G1 X66.561 Y77.999 E0.07883
G1 X67.286 Y77.687 E0.11821
G1 X68.039 Y77.45 E0.15759
G1 X68.813 Y77.291 E0.19701
G1 X69.598 Y77.21 E0.23638
G1 X70 Y77.2 E0.25644
G1 X150 Y77.2 E4.24766
G1 X150.789 Y77.24 E4.28707
G1 X151.569 Y77.359 E4.32644
G1 X152.334 Y77.557 E4.36586
G1 X153.074 Y77.831 E4.40523
G1 X153.783 Y78.179 E4.44463
G1 X154.454 Y78.597 E4.48408
G1 X155.078 Y79.08 E4.52344
G1 X155.651 Y79.623 E4.56283
G1 X156.166 Y80.222 E4.60224
G1 X156.617 Y80.87 E4.64163
G1 X157.001 Y81.561 E4.68107
G1 X157.313 Y82.286 E4.72044
G1 X157.55 Y83.039 E4.75983
G1 X157.709 Y83.813 E4.79925
G1 X157.79 Y84.598 E4.83862
G1 X157.8 Y85 E4.85868
G1 X157.8 Y135 E7.35319
G1 X157.76 Y135.789 E7.39261
G1 X157.641 Y136.569 E7.43197
G1 X157.443 Y137.334 E7.4714
G1 X157.169 Y138.074 E7.51076
G1 X156.821 Y138.783 E7.55017
G1 X156.403 Y139.454 E7.58961
G1 X155.92 Y140.078 E7.62898
G1 X155.377 Y140.651 E7.66836
G1 X154.778 Y141.166 E7.70777
G1 X154.13 Y141.617 E7.74716
G1 X153.439 Y142.001 E7.7866
G1 X152.714 Y142.313 E7.82598
G1 X151.961 Y142.55 E7.86536
G1 X151.187 Y142.709 E7.90478
G1 X150.402 Y142.79 E7.94415
G1 X150 Y142.8 E7.96422
G1 X70 Y142.8 E11.95543
G1 X69.211 Y142.76 E11.99485
G1 X68.431 Y142.641 E12.03421
G1 X67.666 Y142.443 E12.07363
G1 X66.926 Y142.169 E12.113
G1 X66.217 Y141.821 E12.15241
G1 X65.546 Y141.403 E12.19185
G1 X64.922 Y140.92 E12.23121
G1 X64.349 Y140.377 E12.2706
G1 X63.834 Y139.778 E12.31001
G1 X63.383 Y139.13 E12.3494
G1 X62.999 Y138.439 E12.38884
G1 X62.687 Y137.714 E12.42821
G1 X62.45 Y136.961 E12.4676
G1 X62.291 Y136.187 E12.50702
G1 X62.21 Y135.402 E12.54639
G1 X62.2 Y135 E12.56645
G1 X62.2 Y85 E15.06096
G1 X62.24 Y84.211 E15.10038
G1 X62.359 Y83.431 E15.13974
G1 X62.557 Y82.666 E15.17917
G1 X62.831 Y81.926 E15.21853
G1 X63.179 Y81.217 E15.25794
G1 X63.597 Y80.546 E15.29738
G1 X64.08 Y79.922 E15.33675
G1 X64.623 Y79.349 E15.37613
G1 X65.222 Y78.834 E15.41554
G0 F3600 X65.611 Y79.042
G1 F1800 X66.253 Y78.619 E15.4539
G1 X66.936 Y78.264 E15.4923
G1 X67.651 Y77.983 E15.53063
G1 X68.393 Y77.777 E15.56905
G1 X69.151 Y77.649 E15.6074
G1 X70 Y77.6 E15.64983
G1 X150 Y77.6 E19.64104
G1 X150.768 Y77.64 E19.67941
G1 X151.528 Y77.759 E19.71779
G1 X152.271 Y77.957 E19.75615
G1 X152.99 Y78.231 E19.79454
G1 X153.676 Y78.578 E19.83289
G1 X154.323 Y78.994 E19.87127
G1 X154.923 Y79.475 E19.90963
G1 X155.47 Y80.016 E19.94802
G1 X155.958 Y80.611 E19.98641
G1 X156.381 Y81.253 E20.02476
G1 X156.736 Y81.936 E20.06317
G1 X157.017 Y82.651 E20.10149
G1 X157.223 Y83.393 E20.13991
G1 X157.351 Y84.151 E20.17827
G1 X157.4 Y85 E20.22069
G1 X157.4 Y135 E22.7152
G1 X157.36 Y135.768 E22.75357
G1 X157.241 Y136.528 E22.79195
G1 X157.043 Y137.271 E22.83031
G1 X156.769 Y137.99 E22.8687
G1 X156.422 Y138.676 E22.90705
G1 X156.006 Y139.323 E22.94543
G1 X155.525 Y139.923 E22.98379
G1 X154.984 Y140.47 E23.02218
G1 X154.389 Y140.958 E23.06057
G1 X153.747 Y141.381 E23.09893
G1 X153.064 Y141.736 E23.13733
G1 X152.349 Y142.017 E23.17566
G1 X151.607 Y142.223 E23.21407
G1 X150.849 Y142.351 E23.25243
G1 X150 Y142.4 E23.29485
G1 X70 Y142.4 E27.28607
G1 X69.232 Y142.36 E27.32444
G1 X68.472 Y142.241 E27.36282
G1 X67.729 Y142.043 E27.40118
G1 X67.01 Y141.769 E27.43957
G1 X66.324 Y141.422 E27.47792
G1 X65.677 Y141.006 E27.51629
G1 X65.077 Y140.525 E27.55466
G1 X64.53 Y139.984 E27.59304
G1 X64.042 Y139.389 E27.63144
G1 X63.619 Y138.747 E27.66979
G1 X63.264 Y138.064 E27.70819
G1 X62.983 Y137.349 E27.74652
G1 X62.777 Y136.607 E27.78494
G1 X62.649 Y135.849 E27.82329
G1 X62.6 Y135 E27.86572
G1 X62.6 Y85 E30.36023
G1 X62.64 Y84.232 E30.3986
G1 X62.759 Y83.472 E30.43698
G1 X62.957 Y82.729 E30.47534
G1 X63.231 Y82.01 E30.51373
G1 X63.578 Y81.324 E30.55208
G1 X63.994 Y80.677 E30.59046
G1 X64.475 Y80.077 E30.62882
G1 X65.016 Y79.53 E30.6672
G1 X65.611 Y79.042 E30.7056
G0 F3600 X65.998 Y79.257
G1 F1800 X66.634 Y78.862 E30.74295
G1 X67.308 Y78.538 E30.78026
G1 X68.013 Y78.288 E30.81758
G1 X68.741 Y78.114 E30.85492
G1 X69.483 Y78.019 E30.89224
G1 X70 Y78 E30.91805
G1 X150 Y78 E34.90927
G1 X150.747 Y78.04 E34.94659
G1 X151.485 Y78.159 E34.98388
G1 X152.207 Y78.357 E35.02123
G1 X152.903 Y78.63 E35.05853
G1 X153.566 Y78.977 E35.09587
G1 X154.189 Y79.392 E35.13321
G1 X154.763 Y79.871 E35.17051
G1 X155.284 Y80.408 E35.20784
G1 X155.743 Y80.998 E35.24513
G1 X156.138 Y81.634 E35.28248
G1 X156.462 Y82.308 E35.31979
G1 X156.712 Y83.013 E35.35711
G1 X156.886 Y83.741 E35.39445
G1 X156.981 Y84.483 E35.43178
G1 X157 Y85 E35.45759
G1 X157 Y135 E37.9521
G1 X156.96 Y135.747 E37.98942
G1 X156.841 Y136.485 E38.02671
G1 X156.643 Y137.207 E38.06406
G1 X156.37 Y137.903 E38.10136
G1 X156.023 Y138.566 E38.1387
G1 X155.608 Y139.189 E38.17604
G1 X155.129 Y139.763 E38.21334
G1 X154.592 Y140.284 E38.25067
G1 X154.002 Y140.743 E38.28796
G1 X153.366 Y141.138 E38.32531
G1 X152.692 Y141.462 E38.36262
G1 X151.987 Y141.712 E38.39994
G1 X151.259 Y141.886 E38.43729
G1 X150.517 Y141.981 E38.47461
G1 X150 Y142 E38.50042
G1 X70 Y142 E42.49163
G1 X69.253 Y141.96 E42.52895
G1 X68.515 Y141.841 E42.56625
G1 X67.793 Y141.643 E42.6036
G1 X67.097 Y141.37 E42.6409
G1 X66.434 Y141.023 E42.67823
G1 X65.811 Y140.608 E42.71558
G1 X65.237 Y140.129 E42.75288
G1 X64.716 Y139.592 E42.7902
G1 X64.257 Y139.002 E42.8275
G1 X63.862 Y138.366 E42.86485
G1 X63.538 Y137.692 E42.90216
G1 X63.288 Y136.987 E42.93948
G1 X63.114 Y136.259 E42.97682
G1 X63.019 Y135.517 E43.01414
G1 X63 Y135 E43.03995
G1 X63 Y85 E45.53446
G1 X63.04 Y84.253 E45.57178
G1 X63.159 Y83.515 E45.60908
G1 X63.357 Y82.793 E45.64643
G1 X63.63 Y82.097 E45.68373
G1 X63.977 Y81.434 E45.72106
G1 X64.392 Y80.811 E45.75841
G1 X64.871 Y80.237 E45.79571
G1 X65.408 Y79.716 E45.83303
G1 X65.998 Y79.257 E45.87033
G0 F3600 X65.799 Y79.909
G1 F1800 X66.384 Y79.479 E45.90655
G1 X67.013 Y79.115 E45.94281
G1 X67.678 Y78.822 E45.97906
G1 X68.371 Y78.604 E46.01531
G1 X69.083 Y78.464 E46.05151
G1 X70 Y78.4 E46.09737
G1 X150 Y78.4 E50.08858
G1 X150.725 Y78.44 E50.12481
G1 X151.442 Y78.559 E50.16107
G1 X152.141 Y78.757 E50.19732
G1 X152.814 Y79.03 E50.23355
G1 X153.453 Y79.375 E50.26978
G1 X154.05 Y79.789 E50.30602
G1 X154.598 Y80.265 E50.34224
G1 X155.091 Y80.799 E50.3785
G1 X155.521 Y81.384 E50.41472
G1 X155.885 Y82.013 E50.45098
G1 X156.178 Y82.678 E50.48723
G1 X156.396 Y83.371 E50.52347
G1 X156.536 Y84.083 E50.55968
G1 X156.6 Y85 E50.60554
G1 X156.6 Y135 E53.10005
G1 X156.56 Y135.725 E53.13627
G1 X156.441 Y136.442 E53.17253
G1 X156.243 Y137.141 E53.20878
G1 X155.97 Y137.814 E53.24501
G1 X155.625 Y138.453 E53.28124
G1 X155.211 Y139.05 E53.31749
G1 X154.735 Y139.598 E53.3537
G1 X154.201 Y140.091 E53.38996
G1 X153.616 Y140.521 E53.42618
G1 X152.987 Y140.885 E53.46244
G1 X152.322 Y141.178 E53.49869
G1 X151.629 Y141.396 E53.53494
G1 X150.917 Y141.536 E53.57114
G1 X150 Y141.6 E53.617
G1 X70 Y141.6 E57.60822
G1 X69.275 Y141.56 E57.64444
G1 X68.558 Y141.441 E57.6807
G1 X67.859 Y141.243 E57.71695
G1 X67.186 Y140.97 E57.75318
G1 X66.547 Y140.625 E57.78941
G1 X65.95 Y140.211 E57.82566
G1 X65.402 Y139.735 E57.86187
G1 X64.909 Y139.201 E57.89813
G1 X64.479 Y138.616 E57.93435
G1 X64.115 Y137.987 E57.97061
G1 X63.822 Y137.322 E58.00686
G1 X63.604 Y136.629 E58.04311
G1 X63.464 Y135.917 E58.07931
G1 X63.4 Y135 E58.12517
G1 X63.4 Y85 E60.61968
G1 X63.44 Y84.275 E60.6559
G1 X63.559 Y83.558 E60.69216
G1 X63.757 Y82.859 E60.72841
G1 X64.03 Y82.186 E60.76464
G1 X64.375 Y81.547 E60.80087
G1 X64.789 Y80.95 E60.83712
G1 X65.265 Y80.402 E60.87333
G1 X65.799 Y79.909 E60.90959
G0 F3600 X66.189 Y80.109
G1 F1800 X66.768 Y79.709 E60.9447
G1 X67.389 Y79.377 E60.97983
G1 X68.043 Y79.117 E61.01494
G1 X68.723 Y78.933 E61.05009
G1 X69.419 Y78.827 E61.08521
G1 X70 Y78.8 E61.11423
G1 X150 Y78.8 E65.10545
G1 X150.703 Y78.84 E65.14058
G1 X151.397 Y78.959 E65.17571
G1 X152.072 Y79.157 E65.2108
G1 X152.721 Y79.429 E65.24591
G1 X153.335 Y79.774 E65.28104
G1 X153.906 Y80.185 E65.31614
G1 X154.427 Y80.659 E65.35128
G1 X154.891 Y81.189 E65.38643
G1 X155.291 Y81.768 E65.42154
G1 X155.623 Y82.389 E65.45667
G1 X155.883 Y83.043 E65.49178
G1 X156.067 Y83.723 E65.52693
G1 X156.173 Y84.419 E65.56205
G1 X156.2 Y85 E65.59107
G1 X156.2 Y135 E68.08558
G1 X156.16 Y135.703 E68.12071
G1 X156.041 Y136.397 E68.15584
G1 X155.843 Y137.072 E68.19093
G1 X155.571 Y137.721 E68.22604
G1 X155.226 Y138.335 E68.26118
G1 X154.815 Y138.906 E68.29628
G1 X154.341 Y139.427 E68.33142
G1 X153.811 Y139.891 E68.36656
G1 X153.232 Y140.291 E68.40167
G1 X152.611 Y140.623 E68.4368
G1 X151.957 Y140.883 E68.47191
G1 X151.277 Y141.067 E68.50706
G1 X150.581 Y141.173 E68.54218
G1 X150 Y141.2 E68.5712
G1 X70 Y141.2 E72.56242
G1 X69.297 Y141.16 E72.59754
G1 X68.603 Y141.041 E72.63267
G1 X67.928 Y140.843 E72.66777
G1 X67.279 Y140.571 E72.70288
G1 X66.665 Y140.226 E72.73801
G1 X66.094 Y139.815 E72.77311
G1 X65.573 Y139.341 E72.80825
G1 X65.109 Y138.811 E72.8434
G1 X64.709 Y138.232 E72.87851
G1 X64.377 Y137.611 E72.91364
G1 X64.117 Y136.957 E72.94875
G1 X63.933 Y136.277 E72.98389
G1 X63.827 Y135.581 E73.01902
G1 X63.8 Y135 E73.04804
G1 X63.8 Y85 E75.54255
G1 X63.84 Y84.297 E75.57768
G1 X63.959 Y83.603 E75.6128
G1 X64.157 Y82.928 E75.6479
G1 X64.429 Y82.279 E75.68301
G1 X64.774 Y81.665 E75.71814
G1 X65.185 Y81.094 E75.75324
G1 X65.659 Y80.573 E75.78838
G1 X66.189 Y80.109 E75.82353
G0 F3600 X66.578 Y80.317
G1 F1800 X67.15 Y79.948 E75.85749
G1 X67.762 Y79.649 E75.89147
G1 X68.404 Y79.424 E75.92541
G1 X69.069 Y79.275 E75.95941
G1 X70 Y79.2 E76.00601
G1 X150 Y79.2 E79.99722
G1 X150.68 Y79.24 E80.03121
G1 X151.35 Y79.359 E80.06516
G1 X152.002 Y79.556 E80.09914
G1 X152.626 Y79.828 E80.1331
G1 X153.214 Y80.172 E80.16708
G1 X153.758 Y80.582 E80.20107
G1 X154.249 Y81.053 E80.23501
G1 X154.683 Y81.578 E80.269
G1 X155.052 Y82.15 E80.30296
G1 X155.351 Y82.762 E80.33694
G1 X155.576 Y83.404 E80.37088
G1 X155.725 Y84.069 E80.40488
G1 X155.8 Y85 E80.45148
G1 X155.8 Y135 E82.94599
G1 X155.76 Y135.68 E82.97997
G1 X155.641 Y136.35 E83.01392
G1 X155.444 Y137.002 E83.0479
G1 X155.172 Y137.626 E83.08186
G1 X154.828 Y138.214 E83.11585
G1 X154.418 Y138.758 E83.14983
G1 X153.947 Y139.249 E83.18378
G1 X153.422 Y139.683 E83.21776
G1 X152.85 Y140.052 E83.25172
G1 X152.238 Y140.351 E83.2857
G1 X151.596 Y140.576 E83.31964
G1 X150.931 Y140.725 E83.35364
G1 X150 Y140.8 E83.40024
G1 X70 Y140.8 E87.39146
G1 X69.32 Y140.76 E87.42544
G1 X68.65 Y140.641 E87.45939
G1 X67.998 Y140.444 E87.49337
G1 X67.374 Y140.172 E87.52733
G1 X66.786 Y139.828 E87.56132
G1 X66.242 Y139.418 E87.5953
G1 X65.751 Y138.947 E87.62925
G1 X65.317 Y138.422 E87.66323
G1 X64.948 Y137.85 E87.69719
G1 X64.649 Y137.238 E87.73117
G1 X64.424 Y136.596 E87.76511
G1 X64.275 Y135.931 E87.79911
G1 X64.2 Y135 E87.84571
G1 X64.2 Y85 E90.34022
G1 X64.24 Y84.32 E90.37421
G1 X64.359 Y83.65 E90.40816
G1 X64.556 Y82.998 E90.44214
G1 X64.828 Y82.374 E90.4761
G1 X65.172 Y81.786 E90.51008
G1 X65.582 Y81.242 E90.54407
G1 X66.053 Y80.751 E90.57801
G1 X66.578 Y80.317 E90.612
G0 F3600 X66.445 Y80.935
G1 F1800 X66.965 Y80.534 E90.64476
G1 X67.529 Y80.198 E90.67751
G1 X68.131 Y79.934 E90.71031
G1 X68.76 Y79.744 E90.74309
G1 X69.407 Y79.633 E90.77584
G1 X70 Y79.6 E90.80547
G1 X150 Y79.6 E94.79668
G1 X150.656 Y79.64 E94.82947
G1 X151.302 Y79.759 E94.86224
G1 X151.929 Y79.956 E94.89503
G1 X152.527 Y80.228 E94.92781
G1 X153.088 Y80.57 E94.96059
G1 X153.603 Y80.978 E94.99337
G1 X154.065 Y81.445 E95.02614
G1 X154.466 Y81.965 E95.0589
G1 X154.802 Y82.529 E95.09165
G1 X155.066 Y83.131 E95.12445
G1 X155.256 Y83.76 E95.15723
G1 X155.367 Y84.407 E95.18998
G1 X155.4 Y85 E95.21961
G1 X155.4 Y135 E97.71412
G1 X155.36 Y135.656 E97.74691
G1 X155.241 Y136.302 E97.77968
G1 X155.044 Y136.929 E97.81247
G1 X154.772 Y137.527 E97.84525
G1 X154.43 Y138.088 E97.87803
G1 X154.022 Y138.603 E97.91081
G1 X153.555 Y139.065 E97.94358
G1 X153.035 Y139.466 E97.97634
G1 X152.471 Y139.802 E98.00909
G1 X151.869 Y140.066 E98.04189
G1 X151.24 Y140.256 E98.07467
G1 X150.593 Y140.367 E98.10742
G1 X150 Y140.4 E98.13705
G1 X70 Y140.4 E102.12827
G1 X69.344 Y140.36 E102.16106
G1 X68.698 Y140.241 E102.19383
G1 X68.071 Y140.044 E102.22662
G1 X67.473 Y139.772 E102.25939
G1 X66.912 Y139.43 E102.29217
G1 X66.397 Y139.022 E102.32495
G1 X65.935 Y138.555 E102.35772
G1 X65.534 Y138.035 E102.39048
G1 X65.198 Y137.471 E102.42324
G1 X64.934 Y136.869 E102.45603
G1 X64.744 Y136.24 E102.48881
G1 X64.633 Y135.593 E102.52156
G1 X64.6 Y135 E102.55119
G1 X64.6 Y85 E105.0457
G1 X64.64 Y84.344 E105.07849
G1 X64.759 Y83.698 E105.11126
G1 X64.956 Y83.071 E105.14405
G1 X65.228 Y82.473 E105.17683
G1 X65.57 Y81.912 E105.20961
G1 X65.978 Y81.397 E105.24239
G1 X66.445 Y80.935 E105.27516
G0 F3600 X66.836 Y81.129
G1 F1800 X67.35 Y80.76 E105.30673
G1 X67.906 Y80.46 E105.33825
G1 X68.495 Y80.232 E105.36976
G1 X69.109 Y80.08 E105.40132
G1 X70 Y80 E105.44595
G1 X150 Y80 E109.43716
G1 X150.631 Y80.04 E109.46871
G1 X151.252 Y80.159 E109.50025
G1 X151.852 Y80.356 E109.53176
G1 X152.424 Y80.627 E109.56334
G1 X152.956 Y80.967 E109.59484
G1 X153.441 Y81.373 E109.62639
G1 X153.871 Y81.836 E109.65792
G1 X154.24 Y82.35 E109.68948
G1 X154.54 Y82.906 E109.721
G1 X154.768 Y83.495 E109.75251
G1 X154.92 Y84.109 E109.78407
G1 X155 Y85 E109.8287
G1 X155 Y135 E112.32321
G1 X154.96 Y135.631 E112.35475
G1 X154.841 Y136.252 E112.3863
G1 X154.644 Y136.852 E112.41781
G1 X154.373 Y137.424 E112.44938
G1 X154.033 Y137.956 E112.48088
G1 X153.627 Y138.441 E112.51244
G1 X153.164 Y138.871 E112.54396
G1 X152.65 Y139.24 E112.57553
G1 X152.094 Y139.54 E112.60705
G1 X151.505 Y139.768 E112.63856
G1 X150.891 Y139.92 E112.67012
G1 X150 Y140 E112.71475
G1 X70 Y140 E116.70596
G1 X69.369 Y139.96 E116.73751
G1 X68.748 Y139.841 E116.76905
G1 X68.148 Y139.644 E116.80056
G1 X67.576 Y139.373 E116.83214
G1 X67.044 Y139.033 E116.86364
G1 X66.559 Y138.627 E116.89519
G1 X66.129 Y138.164 E116.92672
G1 X65.76 Y137.65 E116.95829
G1 X65.46 Y137.094 E116.9898
G1 X65.232 Y136.505 E117.02131
G1 X65.08 Y135.891 E117.05287
G1 X65 Y135 E117.0975
G1 X65 Y85 E119.59201
G1 X65.04 Y84.369 E119.62356
G1 X65.159 Y83.748 E119.6551
G1 X65.356 Y83.148 E119.68661
G1 X65.627 Y82.576 E119.71819
G1 X65.967 Y82.044 E119.74969
G1 X66.373 Y81.559 E119.78124
G1 X66.836 Y81.129 E119.81277
G0 F3600 X67.225 Y81.331
G1 F1800 X67.732 Y80.998 E119.84303
G1 X68.278 Y80.734 E119.87329
G1 X68.854 Y80.545 E119.90353
G1 X69.45 Y80.433 E119.93378
G1 X70 Y80.4 E119.96127
G1 X150 Y80.4 E123.95249
G1 X150.605 Y80.44 E123.98274
G1 X151.199 Y80.559 E124.01296
G1 X151.773 Y80.755 E124.04322
G1 X152.316 Y81.026 E124.0735
G1 X152.819 Y81.365 E124.10376
G1 X153.272 Y81.767 E124.13398
G1 X153.669 Y82.225 E124.16422
G1 X154.002 Y82.732 E124.19448
G1 X154.266 Y83.278 E124.22474
G1 X154.455 Y83.854 E124.25498
G1 X154.567 Y84.45 E124.28524
G1 X154.6 Y85 E124.31272
G1 X154.6 Y135 E126.80724
